;generated by ffslicer 1.30.3 12/30/22 13:42:10
;right_extruder_material: PLA
;layer_height: 0.2
;perimeter_shells: 2
;top_solid_layers: 4
;bottom_solid_layers: 3
;fill_density: 15%
;fill_pattern: hexagon
;base_print_speed: 50
;travel_speed: 80
;right_extruder_temperature: 200
;left_extruder_temperature: 0
;platform_temperature: 60
;right_extruder_temperature_raft0: 0
;left_extruder_temperature_raft0: 0
;right_extruder_temperature_reset: 
;left_extruder_temperature_reset: 
;start gcode
M140 S60 T0
M104 S200 T0
M104 S0 T1
G90
G28
G1 Z50.000 F420
G161 X Y F3300
M190 S60 T0
M109 S200 T0
M109 S0 T1
G92 E.0000
;layer_count: 174
M108 T0
G1 X151.60 Y110.89 F4800
;preExtrude:0.20
;preExtruder0
M106 S255
G1 Z.200 F420
G1 X151.60 Y110.89 F4800
G1 X153.06 Y113.22 E.3512 F1200
G1 X153.85 Y114.82 E.5791
G1 X154.40 Y116.98 E.8638
G1 X154.48 Y119.23 E1.1513
G1 X154.07 Y121.45 E1.4396
G1 X153.38 Y123.12 E1.6704
G1 X145.06 Y138.76 E3.9330
G1 X144.00 Y140.30 E4.1718
G1 X142.37 Y141.83 E4.4573
G1 X140.44 Y142.99 E4.7449
G1 X138.34 Y143.70 E5.0280
G1 X136.65 Y143.90 E5.2454
G1 X85.68 Y145.68 E11.7592
G1 X83.90 Y145.57 E11.9869
G1 X81.75 Y144.96 E12.2724
G1 X79.76 Y143.90 E12.5603
G1 X78.05 Y142.45 E12.8467
G1 X76.95 Y141.01 E13.0781
G1 X67.62 Y126.08 E15.3267
;raft
;layer:0.31
;shell
G1 E10.3267 F2700
G1 Z.310 F420
G1 X75.64 Y122.68 F4200
G1 E15.3267 F2700
G1 X75.64 Y122.68 F4200
G1 X75.77 Y122.52 E15.3369 F600
G1 X76.21 Y122.71 E15.3606
G1 X76.72 Y122.77 E15.3860
G1 X77.23 Y122.70 E15.4115
G1 X77.70 Y122.50 E15.4368
G1 X78.10 Y122.19 E15.4618
G1 X78.41 Y121.79 E15.4869
G1 X78.60 Y121.32 E15.5120
G1 X78.67 Y120.81 E15.5374
G1 X78.60 Y120.30 E15.5629
G1 X78.40 Y119.83 E15.5882
G1 X78.13 Y119.48 E15.6101
G1 X78.22 Y119.31 E15.6196
G1 X78.93 Y119.39 E15.6550
G1 X79.67 Y119.32 E15.6917
G1 X80.38 Y119.09 E15.7287
G1 X81.03 Y118.73 E15.7655
G1 X81.56 Y118.26 E15.8005
G1 X92.77 Y106.17 E16.6165
G1 X93.27 Y105.54 E16.6563
G1 X93.58 Y104.91 E16.6910
G1 X93.76 Y104.25 E16.7249
G1 X93.81 Y103.55 E16.7596
G1 X93.74 Y102.98 E16.7881
G1 X93.90 Y102.89 E16.7971
G1 X94.31 Y103.20 E16.8226
G1 X94.78 Y103.39 E16.8477
G1 X95.29 Y103.46 E16.8731
G1 X95.79 Y103.39 E16.8981
G1 X96.26 Y103.19 E16.9234
G1 X96.67 Y102.88 E16.9488
G1 X96.97 Y102.47 E16.9740
G1 X97.17 Y102.00 E16.9993
G1 X97.23 Y101.49 E17.0247
G1 X97.16 Y100.99 E17.0497
G1 X96.96 Y100.52 E17.0750
G1 X96.66 Y100.12 E17.0997
G1 X96.25 Y99.80 E17.1254
G1 X95.71 Y99.58 E17.1543
G1 X95.70 Y99.40 E17.1632
G1 X96.28 Y99.11 E17.1953
G1 X96.84 Y98.66 E17.2309
G1 X97.29 Y98.12 E17.2657
G1 X97.64 Y97.49 E17.3013
G1 X97.86 Y96.75 E17.3395
G1 X101.02 Y81.76 E18.0977
G1 X101.09 Y81.03 E18.1340
G1 X101.01 Y80.30 E18.1703
G1 X100.78 Y79.60 E18.2068
G1 X100.42 Y78.96 E18.2432
G1 X99.97 Y78.44 E18.2772
G1 X100.06 Y78.27 E18.2867
G1 X100.36 Y78.31 E18.3017
G1 X100.87 Y78.24 E18.3272
G1 X101.34 Y78.04 E18.3524
G1 X101.74 Y77.73 E18.3775
G1 X102.05 Y77.32 E18.4029
G1 X102.24 Y76.85 E18.4280
G1 X102.31 Y76.35 E18.4530
G1 X102.24 Y75.84 E18.4785
G1 X102.04 Y75.37 E18.5038
G1 X101.73 Y74.97 E18.5288
G1 X101.26 Y74.61 E18.5581
G1 X101.32 Y74.42 E18.5680
G1 X116.20 Y73.90 E19.3048
G1 X116.27 Y74.09 E19.3149
G1 X115.89 Y74.39 E19.3388
G1 X115.58 Y74.79 E19.3639
G1 X115.39 Y75.27 E19.3894
G1 X115.32 Y75.76 E19.4139
G1 X115.39 Y76.28 E19.4399
G1 X115.59 Y76.75 E19.4652
G1 X115.90 Y77.15 E19.4902
G1 X116.30 Y77.46 E19.5153
G1 X116.78 Y77.65 E19.5408
G1 X117.28 Y77.72 E19.5658
G1 X117.73 Y77.66 E19.5883
G1 X117.82 Y77.82 E19.5973
G1 X117.40 Y78.40 E19.6328
G1 X117.10 Y79.08 E19.6696
G1 X116.94 Y79.80 E19.7061
G1 X116.93 Y80.55 E19.7432
G1 X117.07 Y81.24 E19.7780
G1 X121.98 Y97.13 E20.6011
G1 X122.24 Y97.76 E20.6349
G1 X122.62 Y98.32 E20.6684
G1 X123.10 Y98.81 E20.7023
G1 X123.68 Y99.20 E20.7369
G1 X124.21 Y99.43 E20.7655
G1 X124.21 Y99.61 E20.7744
G1 X123.74 Y99.81 E20.7997
G1 X123.33 Y100.13 E20.8254
G1 X123.02 Y100.53 E20.8505
G1 X122.83 Y100.99 E20.8751
G1 X122.77 Y101.50 E20.9005
G1 X122.84 Y102.01 E20.9260
G1 X123.03 Y102.49 E20.9515
G1 X123.35 Y102.89 E20.9769
G1 X123.75 Y103.20 E21.0019
G1 X124.22 Y103.39 E21.0270
G1 X124.73 Y103.46 E21.0525
G1 X125.23 Y103.39 E21.0775
G1 X125.70 Y103.19 E21.1028
G1 X126.17 Y102.83 E21.1321
G1 X126.32 Y102.92 E21.1407
G1 X126.29 Y103.57 E21.1729
G1 X126.40 Y104.27 E21.2080
G1 X126.64 Y104.93 E21.2427
G1 X127.01 Y105.55 E21.2785
G1 X127.53 Y106.10 E21.3159
G1 X138.94 Y116.34 E22.0747
G1 X139.54 Y116.77 E22.1112
G1 X140.22 Y117.07 E22.1480
G1 X140.94 Y117.22 E22.1844
G1 X141.68 Y117.23 E22.2210
G1 X142.35 Y117.09 E22.2549
G1 X142.45 Y117.25 E22.2643
G1 X142.26 Y117.50 E22.2798
G1 X142.07 Y117.96 E22.3044
G1 X142.00 Y118.46 E22.3294
G1 X142.08 Y118.98 E22.3554
G1 X142.27 Y119.45 E22.3805
G1 X142.59 Y119.86 E22.4063
G1 X142.99 Y120.16 E22.4310
G1 X143.46 Y120.36 E22.4563
G1 X143.97 Y120.42 E22.4817
G1 X144.47 Y120.36 E22.5066
G1 X145.02 Y120.13 E22.5361
G1 X145.15 Y120.27 E22.5456
G1 X138.16 Y133.42 E23.2826
G1 X137.96 Y133.38 E23.2927
G1 X137.90 Y132.91 E23.3162
G1 X137.70 Y132.43 E23.3419
G1 X137.38 Y132.03 E23.3673
G1 X136.98 Y131.72 E23.3923
G1 X136.51 Y131.53 E23.4174
G1 X136.01 Y131.46 E23.4424
G1 X135.50 Y131.53 E23.4679
G1 X135.03 Y131.73 E23.4931
G1 X134.62 Y132.04 E23.5186
G1 X134.31 Y132.45 E23.5440
G1 X134.14 Y132.86 E23.5660
G1 X133.96 Y132.87 E23.5749
G1 X133.66 Y132.21 E23.6108
G1 X133.23 Y131.61 E23.6473
G1 X132.69 Y131.11 E23.6838
G1 X132.05 Y130.73 E23.7206
G1 X131.37 Y130.50 E23.7561
G1 X115.22 Y126.82 E24.5759
G1 X114.48 Y126.72 E24.6128
G1 X113.80 Y126.77 E24.6466
G1 X113.14 Y126.94 E24.6803
G1 X112.51 Y127.24 E24.7148
G1 X112.05 Y127.59 E24.7435
G1 X111.89 Y127.49 E24.7528
G1 X111.96 Y126.99 E24.7778
G1 X111.89 Y126.49 E24.8028
G1 X111.69 Y126.01 E24.8285
G1 X111.38 Y125.61 E24.8535
G1 X110.97 Y125.30 E24.8790
G1 X110.50 Y125.11 E24.9041
G1 X109.99 Y125.04 E24.9296
G1 X109.49 Y125.11 E24.9545
G1 X109.02 Y125.31 E24.9798
G1 X108.61 Y125.62 E25.0053
G1 X108.30 Y126.03 E25.0307
G1 X108.11 Y126.50 E25.0558
G1 X108.04 Y126.99 E25.0803
G1 X108.12 Y127.58 E25.1097
G1 X107.97 Y127.68 E25.1187
G1 X107.42 Y127.33 E25.1509
G1 X106.76 Y127.07 E25.1860
G1 X106.07 Y126.94 E25.2208
G1 X105.35 Y126.96 E25.2564
G1 X104.60 Y127.13 E25.2945
G1 X90.03 Y131.89 E26.0531
G1 X89.37 Y132.20 E26.0892
G1 X88.77 Y132.63 E26.1257
G1 X88.28 Y133.18 E26.1622
G1 X87.91 Y133.82 E26.1988
G1 X87.69 Y134.47 E26.2327
G1 X87.49 Y134.47 E26.2426
G1 X87.38 Y134.19 E26.2575
G1 X87.06 Y133.79 E26.2829
G1 X86.65 Y133.48 E26.3083
G1 X86.18 Y133.29 E26.3334
G1 X85.68 Y133.22 E26.3584
G1 X85.17 Y133.29 E26.3838
G1 X84.70 Y133.49 E26.4091
G1 X84.30 Y133.80 E26.4342
G1 X83.99 Y134.21 E26.4596
G1 X83.80 Y134.67 E26.4842
G1 X83.72 Y135.26 E26.5137
G1 X83.53 Y135.31 E26.5234
G1 X75.64 Y122.68 E27.2604
G1 X75.16 Y120.81 F4200
G1 X75.21 Y121.22 E27.2809 F600
G1 X75.37 Y121.60 E27.3013
G1 X75.62 Y121.92 E27.3214
G1 X75.94 Y122.16 E27.3412
G1 X76.32 Y122.32 E27.3616
G1 X76.72 Y122.37 E27.3815
G1 X77.12 Y122.31 E27.4016
G1 X77.50 Y122.16 E27.4218
G1 X77.81 Y121.91 E27.4415
G1 X78.06 Y121.59 E27.4616
G1 X78.21 Y121.21 E27.4818
G1 X78.27 Y120.81 E27.5018
G1 X78.21 Y120.41 E27.5218
G1 X78.05 Y120.04 E27.5418
G1 X77.81 Y119.72 E27.5616
G1 X77.48 Y119.47 E27.5821
G1 X77.11 Y119.32 E27.6018
G1 X76.71 Y119.26 E27.6219
G1 X76.31 Y119.32 E27.6419
G1 X75.94 Y119.47 E27.6616
G1 X75.61 Y119.72 E27.6821
G1 X75.37 Y120.04 E27.7019
G1 X75.21 Y120.42 E27.7223
G1 X75.16 Y120.81 E27.7418
G1 X74.42 Y120.63 F4200
G1 X74.52 Y120.14 E27.7665 F600
G1 X74.71 Y119.69 E27.7907
G1 X74.99 Y119.29 E27.8149
G1 X75.36 Y118.96 E27.8394
G1 X75.77 Y118.72 E27.8629
G1 X76.24 Y118.57 E27.8873
G1 X76.72 Y118.52 E27.9112
G1 X77.21 Y118.57 E27.9356
G1 X78.28 Y118.92 E27.9913
G1 X78.93 Y118.99 E28.0237
G1 X79.59 Y118.92 E28.0565
G1 X80.22 Y118.72 E28.0892
G1 X80.79 Y118.40 E28.1216
G1 X81.28 Y117.97 E28.1539
G1 X92.47 Y105.91 E28.9681
G1 X92.93 Y105.32 E29.0051
G1 X93.20 Y104.77 E29.0354
G1 X93.36 Y104.18 E29.0657
G1 X93.41 Y103.56 E29.0965
G1 X93.34 Y102.97 E29.1259
G1 X93.01 Y101.90 E29.1813
G1 X92.99 Y101.36 E29.2080
G1 X93.07 Y100.85 E29.2336
G1 X93.26 Y100.40 E29.2577
G1 X93.56 Y99.98 E29.2833
G1 X93.93 Y99.63 E29.3085
G1 X94.39 Y99.38 E29.3344
G1 X95.50 Y99.06 E29.3916
G1 X96.06 Y98.77 E29.4228
G1 X96.56 Y98.37 E29.4545
G1 X96.96 Y97.90 E29.4850
G1 X97.27 Y97.33 E29.5171
G1 X97.47 Y96.66 E29.5517
G1 X100.63 Y81.70 E30.3085
G1 X100.69 Y81.03 E30.3417
G1 X100.62 Y80.38 E30.3741
G1 X100.42 Y79.76 E30.4063
G1 X100.09 Y79.19 E30.4389
G1 X99.67 Y78.70 E30.4709
G1 X98.75 Y78.00 E30.5281
G1 X98.44 Y77.63 E30.5520
G1 X98.21 Y77.19 E30.5766
G1 X98.09 Y76.72 E30.6006
G1 X98.06 Y76.23 E30.6249
G1 X98.14 Y75.75 E30.6489
G1 X98.31 Y75.30 E30.6728
G1 X98.59 Y74.89 E30.6973
G1 X98.94 Y74.55 E30.7215
G1 X99.36 Y74.29 E30.7459
G1 X99.81 Y74.12 E30.7697
G1 X100.34 Y74.06 E30.7961
G1 X117.19 Y73.47 E31.6306
G1 X117.71 Y73.51 E31.6564
G1 X118.17 Y73.65 E31.6802
G1 X118.59 Y73.89 E31.7041
G1 X118.96 Y74.21 E31.7283
G1 X119.25 Y74.60 E31.7524
G1 X119.46 Y75.04 E31.7765
G1 X119.56 Y75.51 E31.8003
G1 X119.56 Y76.00 E31.8245
G1 X119.46 Y76.48 E31.8488
G1 X119.26 Y76.92 E31.8727
G1 X118.97 Y77.31 E31.8968
G1 X118.14 Y78.07 E31.9525
G1 X117.75 Y78.60 E31.9850
G1 X117.48 Y79.20 E32.0176
G1 X117.33 Y79.85 E32.0506
G1 X117.33 Y80.51 E32.0833
G1 X117.46 Y81.14 E32.1151
G1 X122.35 Y97.00 E32.9365
G1 X122.60 Y97.57 E32.9673
G1 X122.93 Y98.07 E32.9970
G1 X123.36 Y98.50 E33.0271
G1 X123.87 Y98.85 E33.0577
G1 X124.42 Y99.09 E33.0874
G1 X125.51 Y99.34 E33.1427
G1 X125.99 Y99.59 E33.1695
G1 X126.38 Y99.92 E33.1948
G1 X126.69 Y100.30 E33.2191
G1 X126.90 Y100.76 E33.2441
G1 X127.01 Y101.27 E33.2699
G1 X127.00 Y101.79 E33.2956
G1 X126.73 Y102.91 E33.3527
G1 X126.69 Y103.55 E33.3844
G1 X126.79 Y104.18 E33.4160
G1 X127.00 Y104.76 E33.4465
G1 X127.33 Y105.31 E33.4782
G1 X127.82 Y105.82 E33.5132
G1 X139.19 Y116.03 E34.2695
G1 X139.74 Y116.42 E34.3029
G1 X140.34 Y116.69 E34.3355
G1 X140.98 Y116.82 E34.3678
G1 X141.64 Y116.83 E34.4004
G1 X142.27 Y116.70 E34.4323
G1 X143.34 Y116.26 E34.4895
G1 X143.82 Y116.18 E34.5136
G1 X144.31 Y116.20 E34.5379
G1 X144.77 Y116.32 E34.5614
G1 X145.21 Y116.54 E34.5858
G1 X145.59 Y116.85 E34.6100
G1 X145.90 Y117.23 E34.6343
G1 X146.11 Y117.67 E34.6584
G1 X146.23 Y118.15 E34.6829
G1 X146.25 Y118.63 E34.7067
G1 X146.16 Y119.11 E34.7309
G1 X145.96 Y119.61 E34.7575
G1 X138.04 Y134.49 E35.5918
G1 X137.75 Y134.92 E35.6174
G1 X137.39 Y135.25 E35.6416
G1 X136.98 Y135.50 E35.6654
G1 X136.52 Y135.66 E35.6895
G1 X136.03 Y135.72 E35.7139
G1 X135.55 Y135.67 E35.7378
G1 X135.09 Y135.52 E35.7617
G1 X134.66 Y135.28 E35.7861
G1 X134.30 Y134.95 E35.8103
G1 X134.02 Y134.56 E35.8340
G1 X133.82 Y134.12 E35.8580
G1 X133.59 Y133.01 E35.9141
G1 X133.32 Y132.41 E35.9466
G1 X132.93 Y131.87 E35.9796
G1 X132.45 Y131.43 E36.0118
G1 X131.88 Y131.09 E36.0447
G1 X131.26 Y130.88 E36.0771
G1 X115.15 Y127.22 E36.8947
G1 X114.47 Y127.12 E36.9287
G1 X113.87 Y127.16 E36.9585
G1 X113.27 Y127.32 E36.9892
G1 X112.72 Y127.59 E37.0195
G1 X112.24 Y127.95 E37.0492
G1 X111.48 Y128.76 E37.1042
G1 X111.02 Y129.05 E37.1311
G1 X110.54 Y129.23 E37.1565
G1 X110.06 Y129.30 E37.1805
G1 X109.54 Y129.25 E37.2063
G1 X109.05 Y129.10 E37.2317
G1 X108.61 Y128.83 E37.2572
G1 X107.78 Y128.03 E37.3143
G1 X107.24 Y127.68 E37.3461
G1 X106.65 Y127.45 E37.3775
G1 X106.04 Y127.34 E37.4082
G1 X105.40 Y127.36 E37.4398
G1 X104.71 Y127.52 E37.4749
G1 X90.18 Y132.27 E38.2315
G1 X89.57 Y132.55 E38.2647
G1 X89.04 Y132.93 E38.2970
G1 X88.60 Y133.42 E38.3295
G1 X88.27 Y133.99 E38.3621
G1 X88.06 Y134.60 E38.3941
G1 X87.91 Y135.74 E38.4510
G1 X87.74 Y136.20 E38.4753
G1 X87.48 Y136.61 E38.4993
G1 X87.14 Y136.96 E38.5234
G1 X86.73 Y137.22 E38.5475
G1 X86.27 Y137.40 E38.5719
G1 X85.79 Y137.47 E38.5959
G1 X85.29 Y137.44 E38.6207
G1 X84.83 Y137.31 E38.6444
G1 X84.40 Y137.08 E38.6685
G1 X84.03 Y136.76 E38.6927
G1 X83.70 Y136.33 E38.7195
G1 X74.80 Y122.10 E39.5502
G1 X74.55 Y121.57 E39.5792
G1 X74.43 Y121.10 E39.6032
G1 X74.42 Y120.63 E39.6265
G1 E34.6265 F2700
G1 X84.14 Y135.17 F4200
G1 E39.6265 F2700
G1 X84.14 Y135.17 F4200
G1 X84.19 Y135.58 E39.6469 F600
G1 X84.34 Y135.95 E39.6667
G1 X84.59 Y136.27 E39.6868
G1 X84.91 Y136.52 E39.7068
G1 X85.29 Y136.68 E39.7273
G1 X85.69 Y136.73 E39.7472
G1 X86.09 Y136.68 E39.7672
G1 X86.47 Y136.51 E39.7878
G1 X86.79 Y136.26 E39.8079
G1 X87.04 Y135.94 E39.8280
G1 X87.19 Y135.57 E39.8477
G1 X87.24 Y135.17 E39.8677
G1 X87.19 Y134.77 E39.8876
G1 X87.03 Y134.40 E39.9076
G1 X86.78 Y134.08 E39.9277
G1 X86.45 Y133.83 E39.9481
G1 X86.08 Y133.68 E39.9679
G1 X85.68 Y133.62 E39.9879
G1 X85.28 Y133.68 E40.0079
G1 X84.91 Y133.84 E40.0279
G1 X84.59 Y134.08 E40.0477
G1 X84.34 Y134.41 E40.0682
G1 X84.19 Y134.78 E40.0879
G1 X84.14 Y135.17 E40.1074
G1 E35.1074 F2700
G1 X84.01 Y135.63 F4200
G1 X84.18 Y136.05
G1 X84.46 Y136.41
G1 X84.82 Y136.69
G1 X85.24 Y136.86
G1 X85.69 Y136.92
G1 X86.14 Y136.86
G1 X86.57 Y136.68
G1 X86.93 Y136.40
G1 X87.20 Y136.03
G1 X88.45 Y133.31
G1 X88.91 Y132.79
G1 X89.47 Y132.38
G1 X90.11 Y132.09
G1 X104.66 Y127.34
G1 X105.38 Y127.17
G1 X108.45 Y126.99
G1 E40.1074 F2700
G1 X108.45 Y126.99 F4200
G1 X108.50 Y127.40 E40.1278 F600
G1 X108.66 Y127.78 E40.1482
G1 X108.91 Y128.10 E40.1683
G1 X109.23 Y128.35 E40.1884
G1 X109.60 Y128.50 E40.2082
G1 X110.01 Y128.55 E40.2286
G1 X110.41 Y128.50 E40.2486
G1 X110.78 Y128.34 E40.2685
G1 X111.10 Y128.09 E40.2886
G1 X111.35 Y127.77 E40.3087
G1 X111.50 Y127.40 E40.3285
G1 X111.55 Y126.99 E40.3489
G1 X111.50 Y126.59 E40.3689
G1 X111.34 Y126.22 E40.3888
G1 X111.09 Y125.90 E40.4089
G1 X110.77 Y125.65 E40.4290
G1 X110.40 Y125.50 E40.4488
G1 X109.99 Y125.45 E40.4692
G1 X109.59 Y125.50 E40.4892
G1 X109.22 Y125.66 E40.5091
G1 X108.90 Y125.91 E40.5292
G1 X108.65 Y126.23 E40.5493
G1 X108.50 Y126.60 E40.5691
G1 X108.45 Y126.99 E40.5885
G1 E35.5885 F2700
G1 X108.32 Y127.45 F4200
G1 X108.49 Y127.88
G1 X108.78 Y128.24
G1 X109.14 Y128.51
G1 X109.55 Y128.68
G1 X110.01 Y128.74
G1 X110.46 Y128.68
G1 X113.21 Y127.14
G1 X113.84 Y126.98
G1 X114.47 Y126.93
G1 X115.18 Y127.03
G1 X131.31 Y130.70
G1 X131.96 Y130.92
G1 X132.56 Y131.28
G1 X133.07 Y131.75
G1 X134.46 Y133.41
G1 E40.5885 F2700
G1 X134.46 Y133.41 F4200
G1 X134.51 Y133.83 E40.6095 F600
G1 X134.67 Y134.20 E40.6294
G1 X134.91 Y134.52 E40.6492
G1 X135.24 Y134.76 E40.6694
G1 X135.61 Y134.92 E40.6894
G1 X136.01 Y134.97 E40.7093
G1 X136.41 Y134.92 E40.7293
G1 X136.79 Y134.76 E40.7497
G1 X137.11 Y134.52 E40.7695
G1 X137.36 Y134.19 E40.7899
G1 X137.51 Y133.82 E40.8097
G1 X137.56 Y133.41 E40.8301
G1 X137.51 Y133.01 E40.8501
G1 X137.35 Y132.64 E40.8700
G1 X137.10 Y132.32 E40.8901
G1 X136.78 Y132.07 E40.9102
G1 X136.41 Y131.92 E40.9300
G1 X136.01 Y131.87 E40.9499
G1 X135.60 Y131.92 E40.9704
G1 X135.23 Y132.08 E40.9903
G1 X134.91 Y132.33 E41.0104
G1 X134.66 Y132.65 E41.0305
G1 X134.51 Y133.02 E41.0503
G1 X134.46 Y133.41 E41.0698
G1 E36.0698 F2700
G1 X134.33 Y132.97 F4200
G1 X134.50 Y132.56
G1 X142.41 Y118.46
G1 E41.0698 F2700
G1 X142.41 Y118.46 F4200
G1 X142.46 Y118.88 E41.0907 F600
G1 X142.62 Y119.25 E41.1106
G1 X142.87 Y119.57 E41.1307
G1 X143.19 Y119.81 E41.1505
G1 X143.57 Y119.97 E41.1709
G1 X143.97 Y120.02 E41.1909
G1 X144.37 Y119.97 E41.2108
G1 X144.74 Y119.81 E41.2308
G1 X145.06 Y119.56 E41.2509
G1 X145.30 Y119.24 E41.2707
G1 X145.46 Y118.87 E41.2906
G1 X145.51 Y118.47 E41.3106
G1 X145.46 Y118.07 E41.3305
G1 X145.30 Y117.69 E41.3509
G1 X145.06 Y117.37 E41.3707
G1 X144.72 Y117.12 E41.3916
G1 X144.35 Y116.97 E41.4114
G1 X143.95 Y116.92 E41.4313
G1 X143.55 Y116.97 E41.4513
G1 X143.18 Y117.13 E41.4712
G1 X142.86 Y117.37 E41.4910
G1 X142.61 Y117.70 E41.5115
G1 X142.46 Y118.07 E41.5313
G1 X142.41 Y118.46 E41.5507
G1 E36.5507 F2700
G1 X139.07 Y116.18 F4200
G1 X123.49 Y102.73
G1 X123.22 Y102.38
G1 X123.04 Y101.96
G1 X123.17 Y101.50
G1 E41.5507 F2700
G1 X123.17 Y101.50 F4200
G1 X123.22 Y101.91 E41.5712 F600
G1 X123.38 Y102.28 E41.5911
G1 X123.63 Y102.60 E41.6112
G1 X123.95 Y102.85 E41.6313
G1 X124.32 Y103.00 E41.6511
G1 X124.73 Y103.05 E41.6715
G1 X125.13 Y103.00 E41.6915
G1 X125.50 Y102.84 E41.7114
G1 X125.82 Y102.60 E41.7312
